X:1
T:Title
%%score { 1 | 2 }
L:1/8
Q:1/4=100
M:2/4
K:E
V:1 treble nm="Grand Piano"
V:2 bass 
V:1
 GG G[FA] | [GB]4 | FF [DF][EG] | [FA]4 | [EG][EG] [EA][EB] | [Ec]4 | [G,B,E][G,B,E] [B,EG][A,DF] | %7
w: W.~S.~Nickle * * *|||||||
 [G,E]4 | [Ec]2 [Ec][Ec] | [EB]4 | [DB][DB] [DB][FA] | [EG]4 | [Ec]2 [Ec][Ec] | B4 | EE [EG][DF] | %15
w: ||||||||
 E4 |] %16
w: |
V:2
 [E,B,E][E,B,E] [E,B,E][E,B,] | [E,B,]4 | [B,D][B,D] [B,,B,][B,,B,] | [B,,B,]4 | %4
 [E,B,][=D,B,] [B,,A,][B,,G,] | [A,,A,]4 | B,,B,, B,,B,, | E,4 | [A,,A,]2 [A,,A,][A,,A,] | %9
 [E,G,]4 | [B,,B,][B,,B,] [C,B,][D,B,] | [E,B,]4 | [A,,A,]2 [A,,A,][A,,A,] | [E,G,E]4 | %14
 [C,G,][C,G,] [B,,B,][B,,A,] | [E,G,]4 |] %16

